docs/local/img/sprites/wallet.svg

<svg width="24" height="20" viewBox="0 0 24 20" xmlns="http://www.w3.org/2000/svg"><path d="M21 4H5a3.012 3.012 0 01-2.235-.999A2.995 2.995 0 015 2h18a1 1 0 100-2H5a5 5 0 00-5 5v10a5 5 0 005 5h16a3 3 0 003-3V7a3 3 0 00-3-3zm1 13c0 .551-.448 1-1 1H5c-1.654 0-3-1.346-3-3V4.998A5.012 5.012 0 005 6h16c.552 0 1 .449 1 1v10zm-2-5a1 1 0 11-2 0 1 1 0 012 0z"/></svg> 2 15V4.998C2.854 5.637 3.904 6 5 6H21C21.552 6 22 6.449 22 7V17ZM20 12C20 12.552 19.552 13 19 13C18.448 13 18 12.552 18 12C18 11.448 18.448 11 19 11C19.552 11 20 11.448 20 12Z"/>
</svg>

<svg width="24" height="20" viewBox="0 0 24 20" xmlns="http://www.w3.org/2000/svg">
<path d="M21 4H5C4.141 4 3.328 3.628 2.765 3.001C3.315 2.387 4.114 2 5 2H23C23.553 2 24 1.552 24 1C24 0.448 23.553 0 23 0H5C2.239 0 0 2.239 0 5V15C0 17.761 2.239 20 5 20H21C22.657 20 24 18.657 24 17V7C24 5.343 22.657 4 21 4ZM22 17C22 17.551 21.552 18 21 18H5C3.346 18 2 16.654 2 15V4.998C2.854 5.637 3.904 6 5 6H21C21.552 6 22 6.449 22 7V17ZM20 12C20 12.552 19.552 13 19 13C18.448 13 18 12.552 18 12C18 11.448 18.448 11 19 11C19.552 11 20 11.448 20 12Z"/>
</svg>
